X:791
T:Reel 791
M:4/4
K:Cmaj
L:1/8
GF|E>C (3CCC ECGC|E>C (3CCC G2FE|FD|EDEF GAcd|edce d2GF|E<C (3CCC CDCE|FDEC DCDC|EDEC EFEG|FEDE F2|EF|Gccf ecdc| (3ABc GE F2EF|Gccf ecdB|cAGE F2:|ED|C2EF G2EG|cdec dcAB|c2EC G2EC|DEFG A2GA|cdef ecdc| (3ABc GE F2GD|CEDF EGcA|GEED C2|
